openmetadata-ui/src/main/resources/ui/src/assets/svg/comment.svg

<svg width="16" height="16" viewBox="0 0 16 16" fill="none" xmlns="http://www.w3.org/2000/svg">
<path d="M9.40625 3.3125H3.78125C3.5225 3.3125 3.3125 3.5225 3.3125 3.78125C3.3125 4.04 3.5225 4.25 3.78125 4.25H9.40625C9.665 4.25 9.875 4.04 9.875 3.78125C9.875 3.5225 9.665 3.3125 9.40625 3.3125Z" fill="#7147E8"/>
<path d="M7.53125 5.1875H3.78125C3.5225 5.1875 3.3125 5.3975 3.3125 5.65625C3.3125 5.915 3.5225 6.125 3.78125 6.125H7.53125C7.79 6.125 8 5.915 8 5.65625C8 5.3975 7.79 5.1875 7.53125 5.1875Z" fill="#7147E8"/>
<path d="M10.8125 0.5H2.375C1.34094 0.5 0.5 1.34094 0.5 2.375V11.75C0.5 11.9319 0.605 12.0978 0.77 12.1747C0.832812 12.2038 0.90125 12.2188 0.96875 12.2188C1.07656 12.2188 1.18344 12.1812 1.26875 12.11L3.95094 9.875H10.8125C11.8466 9.875 12.6875 9.03406 12.6875 8V2.375C12.6875 1.34094 11.8466 0.5 10.8125 0.5ZM11.75 8C11.75 8.51656 11.33 8.9375 10.8125 8.9375H3.78125C3.67156 8.9375 3.56563 8.97594 3.48125 9.04625L1.4375 10.7497V2.375C1.4375 1.85844 1.8575 1.4375 2.375 1.4375H10.8125C11.33 1.4375 11.75 1.85844 11.75 2.375V8Z" fill="#7147E8"/>
<path d="M13.625 4.25C13.3663 4.25 13.1562 4.46 13.1562 4.71875C13.1562 4.9775 13.3663 5.1875 13.625 5.1875C14.1425 5.1875 14.5625 5.60844 14.5625 6.125V14.0553L12.98 12.7897C12.8975 12.7241 12.7934 12.6875 12.6875 12.6875H6.125C5.6075 12.6875 5.1875 12.2666 5.1875 11.75V11.2812C5.1875 11.0225 4.9775 10.8125 4.71875 10.8125C4.46 10.8125 4.25 11.0225 4.25 11.2812V11.75C4.25 12.7841 5.09094 13.625 6.125 13.625H12.5225L14.7378 15.3978C14.8231 15.4653 14.9272 15.5 15.0312 15.5C15.0997 15.5 15.1691 15.485 15.2347 15.4541C15.3969 15.3753 15.5 15.2113 15.5 15.0312V6.125C15.5 5.09094 14.6591 4.25 13.625 4.25Z" fill="#7147E8"/>
</svg>

<svg xmlns="http://www.w3.org/2000/svg" width="16" height="16" fill="none"><path fill="#7147E8" d="M9.406 3.313H3.781a.469.469 0 0 0 0 .937h5.625a.469.469 0 0 0 0-.938ZM7.531 5.188h-3.75a.469.469 0 0 0 0 .937h3.75a.469.469 0 0 0 0-.938Z"/><path fill="#7147E8" d="M10.813.5H2.374C1.341.5.5 1.34.5 2.375v9.375a.468.468 0 0 0 .769.36L3.95 9.875h6.861c1.035 0 1.876-.84 1.876-1.875V2.375c0-1.034-.841-1.875-1.876-1.875ZM11.75 8c0 .517-.42.938-.938.938h-7.03a.468.468 0 0 0-.3.108L1.436 10.75V2.375c0-.517.42-.938.938-.938h8.438c.517 0 .937.421.937.938V8Z"/><path fill="#7147E8" d="M13.625 4.25a.469.469 0 0 0 0 .938c.518 0 .938.42.938.937v7.93L12.98 12.79a.473.473 0 0 0-.293-.102H6.125a.938.938 0 0 1-.938-.938v-.469a.469.469 0 0 0-.937 0v.469c0 1.034.84 1.875 1.875 1.875h6.398l2.215 1.773a.473.473 0 0 0 .497.056.47.47 0 0 0 .265-.423V6.125c0-1.034-.84-1.875-1.875-1.875Z"/></svg>
